icons/svg/view-list.svg

<svg xmlns="http://www.w3.org/2000/svg" version="1.1" baseProfile="full" width="24" height="24" viewBox="0 0 24.00 24.00" xml:space="preserve"><path fill="#000" fill-opacity="1" stroke-linejoin="round" d="M9 5v4h12V5M9 19h12v-4H9m0-1h12v-4H9M4 9h4V5H4m0 14h4v-4H4m0-1h4v-4H4v4z"/></svg>

﻿<?xml version="1.0" encoding="utf-8"?>
<!DOCTYPE svg PUBLIC "-//W3C//DTD SVG 1.1//EN" "http://www.w3.org/Graphics/SVG/1.1/DTD/svg11.dtd">
<svg xmlns="http://www.w3.org/2000/svg" xmlns:xlink="http://www.w3.org/1999/xlink" version="1.1" baseProfile="full" width="24" height="24" viewBox="0 0 24.00 24.00" enable-background="new 0 0 24.00 24.00" xml:space="preserve">
	<path fill="#000000" fill-opacity="1" stroke-linejoin="round" d="M 9,5L 9,9L 21,9L 21,5M 9,19L 21,19L 21,15L 9,15M 9,14L 21,14L 21,10L 9,10M 4,9L 8,9L 8,5L 4,5M 4,19L 8,19L 8,15L 4,15M 4,14L 8,14L 8,10L 4,10L 4,14 Z "/>
</svg>
